X: 1802
T: Allistrum's March
R: march, jig
%S: s:4 b:24(8+8+8+8)
B: O'Neill's 1850 #1802
O: F.O'Neill
Z: "Transcribed by Bob Safranek, rjs@gsp.org"
M: 6/8
L: 1/8
K: D
(A/G/) \
"^A"|: Fdd (fe).e | (fd).d (dB).A | Fdd [1fdd | (ed).d B2A :|[2(fe).e | fdd B2A ||
"^B"|: (FE).E (FD).D | FEd dBA | FEE FDD | FEd [1 (B2{cB}A) :|[2 B2A ||
"^C"|| (d2f) (e2f) | (d2e) (dBA/F/) | ddf eef | (d2 e) (dBA/F/) ||
    || d2f .e(ef) | d2e (d/e/d/c/A/F/) | ddf eef | (d2 e) (dBA/F/) ||
"^D"|: (B2A) (B2F) | (B2A) (B/c/B/A/F) | (B/c/d).B c2 F |1 (B/c/d).B cAF :|2 Bdc B2 |]
